icons/file_type_shuttle.svg

<svg version="1.1" viewBox="0 0 32 32" xmlns="http://www.w3.org/2000/svg"><defs><linearGradient id="a" x1="36.036" x2="171.04" y1="171.21" y2="36.209" gradientTransform="matrix(1.2523 0 0 1.2523 -93.833 -117.64)" gradientUnits="userSpaceOnUse"><stop stop-color="#F42929" offset="0"/><stop stop-color="#FF8A3F" offset=".49479"/><stop stop-color="#E5E938" offset="1"/></linearGradient></defs><title>file_type_shuttle</title><g transform="matrix(.16512 0 0 .16512 10.022 13.873)"><path d="m78.693-71.892-42.285 42.284h-42.284l-42.284 42.283h42.284v42.285h-42.284v42.284h42.284v-42.284h42.284v42.284l42.285-42.284v-42.285l42.284-42.283v-42.284z" clip-rule="evenodd" fill="url(#a)" fill-rule="evenodd" stroke-width="1.2523"/></g></svg>

<svg xmlns="http://www.w3.org/2000/svg" viewBox="0 0 32 32"><defs><linearGradient id="a" x1="36.036" x2="171.04" y1="171.21" y2="36.209" gradientTransform="translate(-93.833 -117.64) scale(1.2523)" gradientUnits="userSpaceOnUse"><stop offset="0" stop-color="#F42929"/><stop offset=".495" stop-color="#FF8A3F"/><stop offset="1" stop-color="#E5E938"/></linearGradient></defs><path fill="url(#a)" fill-rule="evenodd" d="M78.693-71.892 36.408-29.608H-5.876L-48.16 12.675h42.284V54.96H-48.16v42.284h42.284V54.96h42.284v42.284L78.693 54.96V12.675l42.284-42.283v-42.284z" clip-rule="evenodd" transform="translate(10.022 13.873) scale(.16512)"/></svg>
